img/features_on.svg

<svg width="20" height="20" viewBox="0 0 20 20" fill="none" xmlns="http://www.w3.org/2000/svg">
<path fill-rule="evenodd" clip-rule="evenodd" d="M9.99996 -0.000976562C4.48608 -0.000976562 0 4.48395 0 9.99901C0 15.513 4.48608 19.9985 9.99996 19.9985C15.5138 19.9985 20 15.513 20 9.99901C20 4.48395 15.5138 -0.000976562 9.99996 -0.000976562ZM15.575 6.66406L9.42112 13.5872C9.2696 13.7571 9.05846 13.8447 8.84571 13.8447C8.67691 13.8447 8.50731 13.7893 8.3654 13.677L4.51916 10.5995C4.18761 10.3345 4.13384 9.85008 4.39921 9.51783C4.66426 9.18665 5.1488 9.13235 5.48035 9.39793L8.7561 12.0184L14.4249 5.64148C14.7066 5.3232 15.1934 5.2947 15.5107 5.57751C15.8284 5.85977 15.8573 6.34578 15.575 6.66406Z" fill="#3FDBB1"/>
</svg>

<svg width="20" height="20" fill="none" xmlns="http://www.w3.org/2000/svg"><path fill-rule="evenodd" clip-rule="evenodd" d="M10-.001c-5.514 0-10 4.485-10 10 0 5.514 4.486 10 10 10s10-4.486 10-10c0-5.515-4.486-10-10-10Zm5.575 6.665-6.154 6.923a.77.77 0 0 1-1.056.09L4.52 10.6a.77.77 0 0 1 .961-1.202l3.276 2.62 5.669-6.377a.77.77 0 0 1 1.15 1.023Z" fill="#3FDBB1"/></svg>
